/* XPM */
static char * closed_dor_xpm[] = {
"60 60 32 1",
" 	c #000000",
".	c #111111",
"+	c #181818",
"@	c #202020",
"#	c #242424",
"$	c #303030",
"%	c #383838",
"&	c #3E3E3E",
"*	c #484848",
"=	c #505050",
"-	c #565756",
";	c #5E5E5E",
">	c #656565",
",	c #6D6D6D",
"'	c #787878",
")	c #808080",
"!	c #888988",
"~	c #919191",
"{	c #999999",
"]	c #A1A2A1",
"^	c #A9A9A9",
"/	c #B0B0B0",
"(	c #B7B8B7",
"_	c #BFBFBF",
":	c #C6C6C6",
"<	c #CECECE",
"[	c #D6D6D6",
"}	c #DEDEDE",
"|	c #E5E5E5",
"1	c #EBEBEB",
"2	c #F1F2F1",
"3	c #F7F7F7",
"[[111|11[}2222211222||}}}32|2111122222222|2211}|122|_<}[<}11",
"1111||||||11122112221}}[22312111222223322|1|}1}1221:_[}[<121",
"211111111}1222121122|}[|33312222222223221}}111|21|[_[}}}1221",
"21112112122221221121|}[2223|2222222222221||21|1|:<<<}||2222|",
"211222122111}|3|}}}}}[}1111}|||}}||1|11||}}|}[|:<[}||1122221",
"11111121|^>&&%&#++++++@@@@@+@@@@@@@@@@@++++@++@@+ }111222211",
"11111121>)~=&$%#[}}}}123332122222111122|1111}[2|[.|11|221211",
"11122221%#!<<^^#[|}122233311111111||1111|||[[}21}.|1112211}|",
"11122221=)][<11#[}[23233321111}||||||11|1||12111}.2222221||1",
"11122222/;'}112#_[|222333111|1}|111|||1|1112|}}}}.2222222122",
"2|1222221|1[[}<@_*$$$$$$$$$$$$$$$$$$$$$$$$$$$$$%1.2222221223",
"1||11232['*;>%%#<.:[[[[<<<<[<::::<<<<:<[<:::::_.2.1122221222",
"111|122[=);==&%#[+}333111112111}}111}122|}1|}|[.1.11122221|2",
"211122|1.@![}<}#}+|332||1211|||}}1211122|}1}}|}.3.111222|1}[",
"21111||1*~{<|1|#[+(:::(_:::____(/::(__::(/__:_(.3.22|2221}_[",
"1|111|11}(~|1|[#[+:[[[:[}}[[[<[[<[}[[}}}<:[}}}[.2.||11121<:[",
"1121|}}}}[_{{{]#[+[221}|2121|||}}1211222}[|2||[.1.}1|}21|[(<",
"221[}}11/=,~{=%#<+}21|[12221|}[}1132123|}<[111[.2.[|}}11|}/:",
"1|[|1111*>=,;&=#<+}1|1|22112}[}|2232112}[||121|.2.}11111|[/:",
"2111|11|$,'<:}2#:+}121}22121}}|122322|21111111|.2.}2111||<(}",
"21|||11|;,~:[22#:.:[[<:[[[[[_:<[[[[[::<:<<<::<:.2.}211|[1<_1",
"211|111}[<(}|21#<.(_:_(:::_^(:::::<<(_____:(_<:.1.|21|}[|:[2",
"111111}[[<!;;,'#:.}2112222[}|1222232[11111|}|1|.|.|1[[[}|[|2",
"1111||[[!-!!{;%#:.}333322||22232332|111221|||2}.|.|}}|11|[|2",
"||111}<<&*,{],'#[+|333321121}}222}2211121}[}12[.}.1|||22|122",
"1||11[<<=,'}<12#[+|3332211}[[}222}}|1112}}}|21[.|.1121211113",
"21111[}[,)!}222#[+}11111}<<<[||11}[}}}}}[[[[|[<.1.11221|}|22",
"1||12}}}[232222#[.]^^//]{{]^^^^//^]]^^^]]]^]^~~.|.1|12||1233",
"11111|}[|(;&&&=#[+}3321[1222111222}<[11}}}|[[|}.2.2111|12332",
"1|[[[|<[,,'>;&%#[+|33322|}11111211|[}|1|||}_21}.3.211|112331",
"2[}}|}<1*$)(_{^#[+|332211|||||}}}}|:<}11:;~|21}.3.2|}1123321",
"1}}||}|1-_]}[22#[+|3321|11||||}}|11    .. *2221.3.1111233211",
"11221|23/')}111#[.<}}}[<[[[<[[[[[[<;,''~; -[[}<.2.21122331||",
"22221|12222}<}[#[.(:__((______(____:_((:(^_:::_.2.2212332211",
"1|221|}11~--;$&#[+}221}|1211}}||11121}}1||1221|.3.2211322211",
"11221}}}>!'&%$%#[+[12|}11|}21}}||121|}|1}12221|.3.2212323221",
"221}2||}@+~[}:[#<.[12111||121}|1122|||}1}222121.2.21222332|}",
"21[12|}[=)(}|22#[+}231||1|121|1||1|}}[}2122122|.3.1122221|}}",
"1[1221}}_)~2321#<.[111}}}}}1[}[[[}[[[[}1|}1}11}.2.21|}}}|222",
"}122|}12221:(_(#[.^(((^^^^((^/^^^^^^^^(((//(((^.2.211111111}",
"22|}}|22:>>)'*%#<.}231|||133}1|1||11|13211|221[.2.11222222[[",
"1|}}||22=)-==$%#:+}231|}|23|}1111|1}<231|2|121}.3.|}}112}[|1",
"1|}1||22+*)}}[|#<+}12|11233}}1111[[:|221121123|.3.|2322}}111",
"1}11||21=']}}}}#[+}11222231}}121[<[}2232122122|.1.1222112221",
"1111||232}/11}}#[.:[[[[[}}<:<[<(_(:<[[[<<[[[[[:.1.||23|22222",
"11111|2231/)')~#[.(::::::_(_::((((::::<(_::::<(.1.}233|22222",
"1221||23]=!~{-%#}+}212211||}22[}}121111}11111|[.1.1332|22221",
"|21|}211&;;)!;,#[.}2221}[||121[[}22|111|111||}<.|.222122221|",
"121|1311*,'}}11#:.}231|[}1||11}}1321|11221111|}.2.||122221|}",
"121|2221;,![11|#:.}321[}111111[}2221|112211222|.1.|13211121}",
"}}}}}12211<[}}1#<+}221|11|1||1}12222|12222121|[.}.12331111}[",
"}}}|11||}/,--;>#[+(::::__::__:_<<:<:::::_(((/^^.}.2222||||}1",
"11322|}}'>~)'*%#<._[[[[<<<<<[[[}[[[<<<:_/___/(_.2.2222111}}1",
"3221|[}}&*~/_{~#<.[322221|22211||1111}:<_<<}}||.2.2222111}}1",
"321}|}}}={'[<|1#[+[3232111|1|1||2222|_}[[[}1|1}.2.|111}||}|2",
"111||}|1~~~}212#[.%&&&&%%&%%%%%%&&&&%$%%%%%%%%%.2.|||}[}}}}2",
"221^~~~~~~~~~!!.+...............................+ ;;;----<22",
"231~;;;;;;;>>>>>>>,,,,>,,,,',,,,,;->')''')!!!!))!!~~~~~~{}22",
"2221|||222111221112223221|}[::<<<(([11|}}22211|1|12122222222",
"221|||21|}[|222111123311|}((:::<:_:}}[}}}|}}[[|1||1112211122"};
