/* XPM */
static char * player_dor_xpm[] = {
"60 60 32 1",
" 	c #000000",
".	c #111111",
"+	c #181818",
"@	c #212121",
"#	c #252525",
"$	c #2F302F",
"%	c #373837",
"&	c #3D3D3D",
"*	c #444544",
"=	c #4C4C4C",
"-	c #535353",
";	c #5B5B5B",
">	c #626363",
",	c #6B6B6B",
"'	c #717272",
")	c #7A7A7A",
"!	c #828383",
"~	c #898989",
"{	c #919291",
"]	c #999A9A",
"^	c #A3A3A3",
"/	c #ABABAB",
"(	c #B4B4B4",
"_	c #BDBDBD",
":	c #C4C4C4",
"<	c #CBCCCB",
"[	c #D4D4D4",
"}	c #DBDBDB",
"|	c #E3E3E3",
"1	c #EAEAEA",
"2	c #F1F1F1",
"3	c #F6F6F6",
"}}111|11[|22222212221||}|3}!>={|22222222212211|11221_[}[<|11",
"11111|1||112222212221||}|;-/1[{=-}2223322|1||2|1222::}|}[121",
"211111111|1222121222||}(&:312222_&]223222||212|21|[_[|||1221",
"22122112122221221121|}^*|23|222222-]22222||22|1|<<<<|||22221",
"211222222222||3||||}}($}122}1||||||&:111|||||[|:<[}|11222221",
"11111121|/>*&%&#+++++ +@@@ +@.+@@@@+ @@++++@++@@+ |111222211",
"11111221>!~-&$%#[|||{,2331*12,_22111-[2|1121}}2|[.1111222211",
"11222221%#~<<//#[|}1&|2331=11=[111||~]21|||}[|21}.11112221||",
"11122221=!^[[12#[}[}=23332[11/}||1||/,1|11112222}.22222211|1",
"21122222(;)}112#_}|_)2333121|1}|111|_;1|2222|||}|.2222222122",
"2|122222111[[}<@:*$#+$$$$$$$$$$$$$$$#.$$$$$$$$$&1.2222222223",
"21|12232[)=;>%%#<.:(;}[<<<<[<<<:<<<<,)<[<<::<:_.2.2122222222",
"111|122}=);--&%#[+|2%311:*%><11|}111%[22||1|||}.2.1112222112",
"211122|1.@~[}<}#}+|3!]||}}1(,11|}12:-122||1}||}.3.111222|1|[",
"21111||1={]<|11@}+_<_#{_::~(___((:_$/:::((_:::(.3.22|2221}:}",
"21211|12}(~|2|[@[+:[[:$~}}{)[[[[<<&][}||[:[}}|[.2.||12121<:[",
"2121|}}||[_]]]^#[+}221[,&^|&|||}~%_11222|[|2|1[.1.}1||21|[_<",
"221[}|11/=,{]-%#<+|211[1}~@.--=%)|32123||[}111}.2.}|||11||(:",
"21[|1111*,-,>&-#[+}111|22).-'_$%}232212|[||121|.2.}11111|[(<",
"21111111$')<<|2#<+}121}2!'%:-}*]$[322|21111112|.2.|2211||<_}",
"2111|12|;,{:[22#<.<}}[<!-<%[$:;/]=[[<:<<<<<<:<:.2.|211|}1[_2",
"211|111}[<_}|22#<.(:::'=<{;/$_,!;~<<(:_:_::__<:.1.121||[|<[2",
"121111|[}<~>;')#<.}22/*12~~}>:^;*232[11111|}|2|.1.|1}[[}1[|2",
"11211|}[~-!~];%@:.|3[%122-_2{]_ [32|111221|||2}.|.||}|111}12",
"||211|<[&=']^,)@[+|3-[321%12(>,=2}2211122|[}12[.}.1|||22|122",
"1|111[<[=,)}[12#}+|3-[222%|}<#-*2|||1112||||21[.|.1122211113",
"21111}}}'!!}222#[+}2_&}1|$<<}[1&1}[}|||}[[[[1}<.1.21222|||22",
"2||12|}}}232222#[.^//)@!]#^////$//^^//^^^^^^/{{.|.2122||1233",
"11111|}[|(;&&*-#[+|332_#^%22222&22}[}11||}|}[|}.2.2121|12332",
"1|[[[1<[,,),>&%#[+|3332|%#11111%21|[}|1||||_21}.3.2111122331",
"2}}}||<1*$)(:]/#[+|33221: }||||%}||:[}11:;{|21|.3.21|1123321",
"1}|||||2;_]|[22#[+|3321|2.(|1||%|11    .. =2221.3.1112233211",
"21221|23()!|111#[.<|}}[[[!'<[[<&}[<>,)){; ;[[}[.2.221223311|",
"22221|12222|<|[#}.(:::(___#___~>___::_(:(/::::_.2.2212332211",
"11221|}11{;-;$&#[+|222}|22>~||>_11121||1||2222|.3.2211322211",
"21221|||>~)*%$%#}+}12||111[${/+}|221|}|1|22221|.3.2212323221",
"222|2|||@+{[|:[#<.[12111||1=;;-_222|||}1|222121.2.22222332|}",
"21[12||[-!(||22#[+}2321|111%1|!]|11|}[|21221221.3.1122221|||",
"1[1221||:){2321#<.}111|}||:-[}{)[}[[[[|1||1|11}.2.21|||||222",
"}122|}12221:__(#[./(_(////''/(~-//////((((((_(/.2.211211111}",
"221}}|22<>>!)*%#<.}232|||1,:|2<-||11|13211|222[.2.21222222[[",
"1|||1|22-)--=$%#:+}231|||2*||2|*111|<23212|221|.3.|||112|[|1",
"1||11|22+=!}}[|@[+|12|1123&}}11%1[[<1221121123|.3.|2322||112",
"1|11||22=)^}|||#[+}112222|=}|22%[<[|2232222222|.1.1222112222",
"1111||232}(21||#}.:[[}[[}/;<<}<$__:[[[}<<[[[[[:.1.|123122222",
"11111|2232/!)!{#}.(::<<:<)'_::($((:::<<_:::<<<(.2.}233|22222",
"1221||23^-~{]-%#}+|222211)^}22}=:121111}12111|[.1.1332|22221",
"|22||221&;>!!;,#[.}2221|[>(121};(22|11112111|}[.1.222122221|",
"121|1311=,'|}12#<.|231|[}=[111},(321|12222211|}.2.1|222221||",
"12112221;,~}11|@<.|321}}2&|111[)^221|122211222|.1.|13212121|",
"|}|||22211<}}|1@<+|221|21%1|11}{]222|122221221[.}.12331111|}",
"}}}|111||(,-;;,#[+_<:<:__$:__::~'<<<:<:<_((_(//.|.22221|||}1",
"11322|||)>~!)=%#[._[}[[[<&<<[[[^,[[<[[:_(_:_(__.2.2222111||1",
"3221|[||&={(_]{#[.[32222<-22221/'|_:2}<<_<<}}1|.2.2222111}|1",
"321||}|}-])[[11#[+}32/=*$'1111|(.%,>-:}}[[|111|.2.|111|||}|2",
"111||}|1{{{|222#[.%&&.%%##%&%%%$.&&&.$%%%%%%%%%.2.||||[}}|}2",
"221|]{{{{{{{~~~.+.....   .......    ............+ ;;;--;-<22",
"2312';;;;;;>>>>>>>,,,,,,'','',,,,>;>)))''!!!~!!!~~~{{{{{]}22",
"22211|1222111222112223221||[::<<<((}111|}22211|1|12222222222",
"222||122|}[|222221123311|}((:::<<_:}}}}|||}}[[|1||1122222122"};
